src/images_karasa_jaga_svg/cmd/lc_basicshapes.cross.svg

<svg height="24" viewBox="0 0 24 24" width="24" xmlns="http://www.w3.org/2000/svg" xmlns:xlink="http://www.w3.org/1999/xlink"><linearGradient id="a" gradientUnits="userSpaceOnUse" x1="67.661018" x2="68.474579" y1="128" y2="1.084746"><stop offset="0" stop-color="#fff"/><stop offset=".46428573" stop-color="#fff"/><stop offset=".78125" stop-color="#f1f1f1"/><stop offset=".90625" stop-color="#eaeaea"/><stop offset="1" stop-color="#dfdfdf"/></linearGradient><linearGradient id="b" gradientUnits="userSpaceOnUse" x1="5.822266" x2="122.17578" y1="64.000977" y2="64.000977"><stop offset="0" stop-color="#7c9fcf"/><stop offset=".5" stop-color="#7c9ece"/><stop offset="1" stop-color="#7b9dcf"/></linearGradient><g transform="matrix(.171875 0 0 .171875 1.000155 .999845)"><path d="m52.363281 5.8242188a5.8154251 5.8154251 0 0 0 -5.814453 5.8144532v34.912109h-34.912109a5.8154251 5.8154251 0 0 0 -5.8144534 5.814453v23.271485a5.8154251 5.8154251 0 0 0 5.8144534 5.814453h34.912109v34.912108a5.8154251 5.8154251 0 0 0 5.814453 5.81445h23.271485a5.8154251 5.8154251 0 0 0 5.814453-5.81445v-34.912108h34.912111a5.8154251 5.8154251 0 0 0 5.81445-5.814453v-23.271485a5.8154251 5.8154251 0 0 0 -5.81445-5.814453h-34.912111v-34.912109a5.8154251 5.8154251 0 0 0 -5.814453-5.8144532z" fill="url(#b)"/><path d="m52.363281 11.638672v40.726562h-40.726562v23.271485h40.726562v40.726561h23.271485v-40.726561h40.726564v-23.271485h-40.726564v-40.726562z" fill="url(#a)"/></g></svg>

<?xml version="1.0" encoding="UTF-8" standalone="no"?>
<svg
   xmlns:dc="http://purl.org/dc/elements/1.1/"
   xmlns:cc="http://creativecommons.org/ns#"
   xmlns:rdf="http://www.w3.org/1999/02/22-rdf-syntax-ns#"
   xmlns:svg="http://www.w3.org/2000/svg"
   xmlns="http://www.w3.org/2000/svg"
   xmlns:xlink="http://www.w3.org/1999/xlink"
   xmlns:sodipodi="http://sodipodi.sourceforge.net/DTD/sodipodi-0.dtd"
   xmlns:inkscape="http://www.inkscape.org/namespaces/inkscape"
   height="128"
   viewBox="0 0 128 128"
   width="128"
   version="1.1"
   id="svg17"
   sodipodi:docname="lc_basicshapes.cross.svg"
   inkscape:version="0.92.3 (unknown)"
   inkscape:export-filename="/home/rizmut/Dokumen/Rizmut/Github/libreoffice-style-karasa-jaga/build/images_karasa_jaga/cmd/lc_basicshapes.cross.png"
   inkscape:export-xdpi="16.5"
   inkscape:export-ydpi="16.5">
  <metadata
     id="metadata23">
    <rdf:RDF>
      <cc:Work
         rdf:about="">
        <dc:format>image/svg+xml</dc:format>
        <dc:type
           rdf:resource="http://purl.org/dc/dcmitype/StillImage" />
        <dc:title></dc:title>
      </cc:Work>
    </rdf:RDF>
  </metadata>
  <defs
     id="defs21">
    <linearGradient
       id="linearGradient7422">
      <stop
         style="stop-color:#7c9fcf;stop-opacity:1"
         offset="0"
         id="stop7424" />
      <stop
         id="stop5348"
         offset="0.5"
         style="stop-color:#7c9ece;stop-opacity:1" />
      <stop
         id="stop7426"
         offset="1"
         style="stop-color:#7b9dcf;stop-opacity:1" />
    </linearGradient>
    <linearGradient
       id="linearGradient3369">
      <stop
         id="stop3372"
         offset="0"
         style="stop-color:#ffffff;stop-opacity:1;" />
      <stop
         style="stop-color:#ffffff;stop-opacity:1;"
         offset="0.46428573"
         id="stop3374" />
      <stop
         style="stop-color:#f1f1f1;stop-opacity:1;"
         offset="0.78125"
         id="stop3376" />
      <stop
         id="stop3378"
         offset="0.90625"
         style="stop-color:#eaeaea;stop-opacity:1;" />
      <stop
         id="stop3384"
         offset="1"
         style="stop-color:#dfdfdf;stop-opacity:1;" />
    </linearGradient>
    <linearGradient
       inkscape:collect="always"
       xlink:href="#linearGradient3369"
       id="linearGradient874"
       x1="67.661018"
       y1="128"
       x2="68.474579"
       y2="1.0847458"
       gradientUnits="userSpaceOnUse" />
    <linearGradient
       inkscape:collect="always"
       xlink:href="#linearGradient7422"
       id="linearGradient845"
       x1="5.8222656"
       y1="64.000977"
       x2="122.17578"
       y2="64.000977"
       gradientUnits="userSpaceOnUse" />
  </defs>
  <sodipodi:namedview
     pagecolor="#ffffff"
     bordercolor="#666666"
     borderopacity="1"
     objecttolerance="10"
     gridtolerance="10"
     guidetolerance="10"
     inkscape:pageopacity="0"
     inkscape:pageshadow="2"
     inkscape:window-width="1366"
     inkscape:window-height="706"
     id="namedview19"
     showgrid="true"
     inkscape:snap-global="false"
     inkscape:zoom="1.84375"
     inkscape:cx="-50.851319"
     inkscape:cy="78.097977"
     inkscape:window-x="0"
     inkscape:window-y="0"
     inkscape:window-maximized="1"
     inkscape:current-layer="svg17">
    <inkscape:grid
       type="xygrid"
       id="grid830"
       spacingx="5.8181"
       spacingy="5.8181"
       empspacing="1" />
  </sodipodi:namedview>
  <linearGradient
     id="a"
     gradientUnits="userSpaceOnUse"
     x1="12.43826596873"
     x2="-55.01607626578"
     y1="16.0318989829"
     y2="81.50080110547">
    <stop
       offset="0"
       stop-color="#f9f9fa"
       id="stop2" />
    <stop
       offset="1"
       stop-color="#f9f9fa"
       stop-opacity="0"
       id="stop4" />
  </linearGradient>
  <path
     sodipodi:type="inkscape:offset"
     inkscape:radius="5.8148437"
     inkscape:original="M 52.363281 11.638672 L 52.363281 52.365234 L 11.636719 52.365234 L 11.636719 75.636719 L 52.363281 75.636719 L 52.363281 116.36328 L 75.634766 116.36328 L 75.634766 75.636719 L 116.36133 75.636719 L 116.36133 52.365234 L 75.634766 52.365234 L 75.634766 11.638672 L 52.363281 11.638672 z "
     style="fill:url(#linearGradient845);fill-opacity:1.0;stroke:none;stroke-width:4;stroke-linecap:round;stroke-linejoin:bevel;stroke-opacity:0.73039198"
     id="path835"
     d="M 52.363281,5.8242188 A 5.8154251,5.8154251 0 0 0 46.548828,11.638672 V 46.550781 H 11.636719 a 5.8154251,5.8154251 0 0 0 -5.8144534,5.814453 v 23.271485 a 5.8154251,5.8154251 0 0 0 5.8144534,5.814453 h 34.912109 v 34.912108 a 5.8154251,5.8154251 0 0 0 5.814453,5.81445 h 23.271485 a 5.8154251,5.8154251 0 0 0 5.814453,-5.81445 V 81.451172 h 34.912111 a 5.8154251,5.8154251 0 0 0 5.81445,-5.814453 V 52.365234 a 5.8154251,5.8154251 0 0 0 -5.81445,-5.814453 H 81.449219 V 11.638672 A 5.8154251,5.8154251 0 0 0 75.634766,5.8242188 Z" />
  <path
     style="fill:url(#linearGradient874);fill-opacity:1;stroke:none;stroke-width:4;stroke-linecap:round;stroke-linejoin:bevel;stroke-opacity:0.73039198"
     d="M 52.363281 11.638672 L 52.363281 52.365234 L 11.636719 52.365234 L 11.636719 75.636719 L 52.363281 75.636719 L 52.363281 116.36328 L 75.634766 116.36328 L 75.634766 75.636719 L 116.36133 75.636719 L 116.36133 52.365234 L 75.634766 52.365234 L 75.634766 11.638672 L 52.363281 11.638672 z "
     id="path7" />
</svg>
